tracks/haxe.svg

<svg width="96" height="96" fill="none" xmlns="http://www.w3.org/2000/svg">
  <path d="M44 2.3093a8 8 0 018 0l33.5692 19.3812a8 8 0 014 6.9282v38.7624a7.9998 7.9998 0 01-4 6.9282L52 93.6905a7.9998 7.9998 0 01-8 0L10.4308 74.3093a7.9998 7.9998 0 01-4-6.9282V28.6187a8 8 0 014-6.9282L44 2.3093z" fill="#fff"/>
  <path fill-rule="evenodd" clip-rule="evenodd" d="M84.1907 22.9024L51.5701 4.069a7.233 7.233 0 00-7.2331 0L11.7165 22.9024a7.2332 7.2332 0 00-3.6166 6.2641v37.667a7.233 7.233 0 003.6166 6.264L44.337 91.931a7.233 7.233 0 007.2331 0l32.6206-18.8335a7.233 7.233 0 003.6165-6.264v-37.667a7.2333 7.2333 0 00-3.6165-6.2641zM53.1201 1.3844a10.333 10.333 0 00-10.333 0L10.1665 20.2178A10.3332 10.3332 0 005 29.1665v37.667a10.333 10.333 0 005.1665 8.9486l32.6206 18.8335a10.333 10.333 0 0010.333 0l32.6205-18.8335a10.333 10.333 0 005.1666-8.9486v-37.667a10.3332 10.3332 0 00-5.1666-8.9487L53.1201 1.3844z" fill="#F68712"/>
  <g clip-path="url(#clip0)">
    <path d="M48 30.0007l-13.6695-1.5139L24 24.0006h11.9996L48 30.0015M48.0001 30.0007l13.9826-1.2009 10.0174-4.7992H59.9997l-11.9996 6.0009M48.0001 66l13.0435.4695L72.0001 72H59.9997l-11.9996-6.0011M48 65.9998H34.8522l-10.8522 6h11.9996L48 65.9987" fill="#FBC707"/>
    <path d="M29.9998 48.0003v12.6255L24 71.9998V60.0002L29.9998 48" fill="#FFF200"/>
    <path d="M29.9998 48.0005l-.9911-12.5224L24 24.0006v11.9996l5.9998 12" fill="#FFF200"/>
    <path d="M65.9993 48.0005l1.3051-13.1485 4.6957-10.8514v11.9996l-6.0008 12" fill="#F1471D"/>
    <path d="M65.9993 48.0006l1.0964 14.0863L72.0001 72V60.0004l-6.0008-12.0001" fill="#F1471D"/>
    <path d="M24 24.0006l24 6.0001-3.8608 15.2861-14.1394 2.7137L24 24.0019" fill="#FAB20B"/>
    <path d="M72.0001 24.0006l-6.0009 23.9999-16.1209-2.9231L48 29.9999l24.0001-5.998" fill="#F47216"/>
    <path d="M72.0001 72l-24-6 2.713-15.9119 15.2862-2.0863 6.0008 23.9967" fill="#F25C19"/>
    <path d="M24 71.9998l5.9998-23.9995 14.4524 3.2342L48 65.9997l-24 5.9986" fill="#F89C0E"/>
    <path d="M48.0001 30.0007L29.9998 48.0006 48.0001 66l17.9992-17.9994-17.9992-17.9991" fill="#F68712"/>
  </g>
  <defs>
    <clipPath id="clip0">
      <path fill="#fff" transform="translate(24 24)" d="M0 0h48v48H0z"/>
    </clipPath>
  </defs>
</svg>

<svg width="96" height="96" viewBox="0 0 96 96" fill="none" xmlns="http://www.w3.org/2000/svg">
<path d="M44 2.30935C46.4752 0.880283 49.5248 0.880284 52 2.30935L85.5692 21.6905C88.0444 23.1196 89.5692 25.7606 89.5692 28.6187V67.3811C89.5692 70.2393 88.0444 72.8803 85.5692 74.3093L52 93.6905C49.5248 95.1196 46.4752 95.1196 44 93.6905L10.4308 74.3093C7.95558 72.8803 6.43079 70.2393 6.43079 67.3811V28.6187C6.43079 25.7606 7.95558 23.1196 10.4308 21.6905L44 2.30935Z" fill="white"/>
<path fill-rule="evenodd" clip-rule="evenodd" d="M84.1907 22.9024L51.5701 4.06896C49.3322 2.77689 46.575 2.77689 44.337 4.06896L11.7165 22.9024C9.47853 24.1945 8.09991 26.5824 8.09991 29.1665V66.8335C8.09991 69.4176 9.47853 71.8055 11.7165 73.0975L44.337 91.931C46.575 93.2231 49.3322 93.2231 51.5701 91.931L84.1907 73.0975C86.4286 71.8055 87.8072 69.4176 87.8072 66.8335V29.1665C87.8072 26.5824 86.4286 24.1945 84.1907 22.9024ZM53.1201 1.38436C49.923 -0.461454 45.9841 -0.461455 42.7871 1.38436L10.1665 20.2178C6.96946 22.0637 5 25.4749 5 29.1665V66.8335C5 70.5251 6.96946 73.9363 10.1665 75.7821L42.7871 94.6156C45.9841 96.4614 49.923 96.4614 53.1201 94.6156L85.7406 75.7821C88.9377 73.9363 90.9071 70.5251 90.9071 66.8335V29.1665C90.9071 25.4749 88.9377 22.0637 85.7406 20.2178L53.1201 1.38436Z" fill="#F68712"/>
<g clip-path="url(#clip0)">
<path d="M48 30.0007L34.3305 28.4868L24 24.0006H35.9996L48 30.0015" fill="#FBC707"/>
<path d="M48.0001 30.0007L61.9827 28.7998L72.0001 24.0006H59.9997L48.0001 30.0015" fill="#FBC707"/>
<path d="M48.0001 66L61.0436 66.4695L72.0001 72H59.9997L48.0001 65.9989" fill="#FBC707"/>
<path d="M48 65.9998H34.8522L24 71.9998H35.9996L48 65.9987" fill="#FBC707"/>
<path d="M29.9998 48.0003V60.6258L24 71.9998V60.0002L29.9998 48" fill="#FFF200"/>
<path d="M29.9998 48.0005L29.0087 35.4781L24 24.0006V36.0002L29.9998 48.0002" fill="#FFF200"/>
<path d="M65.9993 48.0005L67.3044 34.852L72.0001 24.0006V36.0002L65.9993 48.0002" fill="#F1471D"/>
<path d="M65.9993 48.0006L67.0957 62.0869L72.0001 72V60.0004L65.9993 48.0003" fill="#F1471D"/>
<path d="M24 24.0006L48 30.0007L44.1392 45.2868L29.9998 48.0005L24 24.0019" fill="#FAB20B"/>
<path d="M72.0001 24.0006L65.9992 48.0005L49.8783 45.0774L48 29.9999L72.0001 24.0019" fill="#F47216"/>
<path d="M72.0001 72L48.0001 66L50.7131 50.0881L65.9993 48.0018L72.0001 71.9985" fill="#F25C19"/>
<path d="M24 71.9998L29.9998 48.0003L44.4522 51.2345L48 65.9997L24 71.9983" fill="#F89C0E"/>
<path d="M48.0001 30.0007L29.9998 48.0006L48.0001 66L65.9993 48.0006L48.0001 30.0015" fill="#F68712"/>
</g>
<defs>
<clipPath id="clip0">
<rect width="48" height="48" fill="white" transform="translate(24 24)"/>
</clipPath>
</defs>
</svg>
